X:1
T:The Rebel's Fancy
C:Jeff Porterfield
R:jig
M:6/8
K:G
D|G2G GAB|cBA B2D|G2G GAB|AGE F2D|
G2G GAB|cBA B2d|deg fed|cBA G2:|
d|deg fed|deg fed|gfg eag|fed d2d|
deg fed|deg fed|dgd fed|cBA G2:|
